src/assets/icons/cars/coupe_car.svg

<svg width="48" height="48" viewBox="0 0 48 48" fill="none" xmlns="http://www.w3.org/2000/svg">
<path d="M33.3741 26.7549C33.238 26.7497 33.1023 26.7733 32.975 26.8243C32.8478 26.8753 32.7317 26.9526 32.6336 27.0517C32.5356 27.1507 32.4576 27.2695 32.4043 27.4008C32.351 27.5322 32.3235 27.6734 32.3235 27.8162C32.3235 27.9589 32.351 28.1001 32.4043 28.2315C32.4576 28.3628 32.5356 28.4816 32.6336 28.5806C32.7317 28.6797 32.8478 28.757 32.975 28.808C33.1023 28.859 33.238 28.8826 33.3741 28.8774C33.6364 28.8674 33.8847 28.7512 34.0669 28.5533C34.2491 28.3553 34.3509 28.0911 34.3509 27.8162C34.3509 27.5412 34.2491 27.277 34.0669 27.079C33.8847 26.8811 33.6364 26.7649 33.3741 26.7549ZM15.8108 26.4164H30.6441C30.8945 25.8814 31.283 25.4306 31.7656 25.1153C32.2481 24.7999 32.8054 24.6326 33.3741 24.6323C34.5722 24.6323 35.6088 25.3614 36.1041 26.4192L36.9226 26.4234C37.5324 26.4291 38.1611 26.4446 38.6053 26.3332C38.7978 26.2838 38.9459 26.0539 38.9459 25.7972V25.5265C38.9486 25.0921 38.9486 24.4207 38.9459 24.3248C38.9486 23.7099 38.892 23.3432 38.8368 23.1952C38.7561 23.0936 38.0238 22.4336 37.3049 22.3772C36.897 22.3461 35.532 22.2178 35.0111 21.8835C34.3878 21.4788 34.058 21.1149 33.7659 20.7933C33.3607 20.342 32.9757 19.9161 31.437 19.1856C27.3972 17.2633 22.691 18.3676 21.1645 19.1672L20.6489 19.4352H22.0193C22.2881 19.4352 22.546 19.5471 22.7361 19.7462C22.9262 19.9454 23.0329 20.2155 23.0329 20.4972C23.0329 20.7788 22.9262 21.049 22.7361 21.2481C22.546 21.4473 22.2881 21.5592 22.0193 21.5592H16.6589C16.5781 21.5588 16.4977 21.5484 16.4193 21.5281C15.5833 21.7623 14.1254 22.0768 12.0739 22.5126C10.5931 22.8271 9.19309 23.1246 8.53751 23.3052L8.4527 23.3771C8.32113 23.469 8.2133 23.5936 8.13885 23.7398C8.06439 23.886 8.02561 24.0492 8.02597 24.2148V25.7281C8.02597 25.9637 8.20905 26.1555 8.43386 26.1555H10.4894C10.7741 25.6696 11.178 25.2726 11.659 25.006C12.14 24.7393 12.6805 24.6128 13.2241 24.6396C13.7677 24.6664 14.2944 24.8455 14.7494 25.1583C15.2044 25.4711 15.5709 25.906 15.8108 26.4178V26.4164ZM16.041 28.5404C15.884 29.2397 15.5063 29.8629 14.969 30.3093C14.4318 30.7557 13.7665 30.9991 13.0808 31C12.3514 30.9991 11.6465 30.7238 11.0946 30.2242C10.5426 29.7246 10.1803 29.034 10.0735 28.278H8.43386C7.78858 28.2773 7.16993 28.0084 6.71365 27.5304C6.25736 27.0523 6.00071 26.4042 6 25.7281V24.2148C6 23.167 6.49808 22.1938 7.32866 21.6113L7.47001 21.5126C7.64635 21.3899 7.82674 21.3053 8.02328 21.2503C8.73539 21.0557 10.161 20.7524 11.6714 20.4323C13.4079 20.0628 15.7852 19.5579 16.2685 19.3604L20.2585 17.2689C22.6385 16.0207 27.941 15.1915 32.273 17.252C34.1738 18.1546 34.7391 18.7808 35.2386 19.3322C35.493 19.6143 35.6761 19.8174 36.0732 20.0755C36.2091 20.115 37.0815 20.2306 37.4543 20.2602C38.993 20.3801 40.4469 21.6537 40.7322 22.442C40.8951 22.8919 40.9746 23.5153 40.9719 24.2995C41.0055 25.2387 41.0203 25.7888 40.9503 26.147C40.8157 27.2302 40.0686 28.1469 39.0765 28.3965C38.5622 28.5263 38.0103 28.5516 37.4584 28.5516C37.2699 28.5516 37.0788 28.5488 36.8903 28.546L36.333 28.5418C36.1758 29.2406 35.7981 29.8634 35.2612 30.3095C34.7243 30.7555 34.0594 30.9988 33.3741 31C32.6885 30.9991 32.0231 30.7557 31.4859 30.3093C30.9487 29.8629 30.571 29.2397 30.4139 28.5404H16.0423H16.041ZM13.0808 26.7549C12.812 26.7552 12.5543 26.8675 12.3644 27.0669C12.1746 27.2663 12.0681 27.5366 12.0685 27.8183C12.0688 28.0999 12.176 28.3699 12.3663 28.5688C12.5567 28.7677 12.8146 28.8792 13.0835 28.8788C13.3523 28.8785 13.61 28.7662 13.7999 28.5668C13.9897 28.3674 14.0962 28.0971 14.0958 27.8154C14.0954 27.5338 13.9883 27.2638 13.798 27.0649C13.6076 26.866 13.3496 26.7545 13.0808 26.7549Z" fill="#253238"/>
</svg>

<svg width="48" height="48" viewBox="0 0 48 48" fill="none" xmlns="http://www.w3.org/2000/svg"><path d="M33.374 26.755a.972.972 0 00-.399.07 1.01 1.01 0 00-.341.227 1.066 1.066 0 00-.23.349 1.106 1.106 0 00.23 1.18c.098.099.214.176.341.227a.972.972 0 00.4.07.993.993 0 00.692-.325 1.09 1.09 0 00.284-.737c0-.275-.102-.539-.284-.737a.993.993 0 00-.693-.324zm-17.563-.339h14.833a3.14 3.14 0 011.122-1.3 2.94 2.94 0 011.608-.484c1.198 0 2.235.73 2.73 1.787l.819.004c.61.006 1.238.022 1.682-.09.193-.05.34-.28.34-.536v-.27c.004-.435.004-1.106 0-1.202.004-.615-.053-.982-.108-1.13-.08-.101-.813-.761-1.532-.818-.408-.03-1.773-.16-2.294-.493-.623-.405-.953-.77-1.245-1.09-.405-.452-.79-.878-2.329-1.608-4.04-1.923-8.746-.818-10.273-.019l-.515.268h1.37c.27 0 .527.112.717.311.19.2.297.47.297.751 0 .282-.107.552-.297.751a.99.99 0 01-.717.311h-5.36a.975.975 0 01-.24-.03c-.836.233-2.294.548-4.345.984-1.48.314-2.88.612-3.536.792l-.085.072a.989.989 0 00-.314.363c-.075.146-.113.31-.113.475v1.513c0 .236.183.427.408.427h2.055a3.104 3.104 0 011.17-1.149 2.927 2.927 0 013.09.152c.455.313.822.748 1.062 1.26v-.002zm.23 2.124a3.21 3.21 0 01-1.072 1.77 2.959 2.959 0 01-1.888.69c-.73 0-1.434-.276-1.986-.776a3.233 3.233 0 01-1.022-1.946h-1.64c-.644 0-1.263-.27-1.72-.748A2.616 2.616 0 016 25.728v-1.513c0-1.048.498-2.021 1.329-2.604l.141-.098c.176-.123.357-.208.553-.263.712-.194 2.138-.498 3.648-.818 1.737-.37 4.114-.874 4.598-1.072l3.99-2.091c2.38-1.248 7.682-2.077 12.014-.017 1.9.903 2.466 1.529 2.966 2.08.254.282.437.485.834.744.136.039 1.008.155 1.381.184 1.539.12 2.993 1.394 3.278 2.182.163.45.243 1.073.24 1.857.033.94.048 1.49-.022 1.848-.134 1.083-.881 2-1.873 2.25-.515.13-1.067.155-1.619.155-.188 0-.38-.003-.568-.006l-.557-.004a3.211 3.211 0 01-1.072 1.767 2.96 2.96 0 01-1.887.691 2.959 2.959 0 01-1.888-.69 3.212 3.212 0 01-1.072-1.77H16.04zm-2.96-1.785a.99.99 0 00-.717.312c-.19.2-.296.47-.296.751 0 .282.108.552.298.75a.99.99 0 00.718.31.99.99 0 00.716-.311c.19-.2.296-.47.296-.752 0-.281-.108-.551-.298-.75a.99.99 0 00-.717-.31z" fill="#253238"/></svg>
